!!!!SEGMENT: pl-wtm--r-1461--029_stefani-jozef--wszechstronne-cwiczenia-glosowe-andante.krn
!!!cenid: 18xx:2206
!!!COM: Stefani, Józef
!!!COM-rismid: pe30024097
!!!CDT: 1800/04/16-1876/03/19
!!!CNT: Polish
!!!GTL: Wszechstronne ćwiczenia głosowe
!!!OTL: Andante
!!!PDT:
!!!AGN: Secular
!!!SMS-siglum: PL-Wtm
!!!SMS-shelfmark: R 1461
!!!SMS-shelfwork: 029 G
!!!SMS-variant:
!!!SMS-altvar:
!!!NIFC-rismid: 1001120710
!!!URL-scan: http://repozytorium.nifc.pl/skany/pl-wtm-nut--r1461
!!!ONB-nifc: UWAGA: skan 0025, s. 47 – 0026, s. 48 (Appogiatura z góry)
!!!OMD: Andante.
!!!key:
**kern	**kern	**kern	**dynam
*part2	*part2	*part1	*part1
*staff3	*staff2	*staff1	*
*Iempty	*Iforte	*Itenor	*
*	*I"Fortepian	*I"Sopran/Tenor	*
*>[A,B,B]	*>[A,B,B]	*>[A,B,B]	*>[A,B,B]
*>A	*>A	*>A	*>A
*clefF4	*clefG2	*clefG2	*
*k[]	*k[]	*k[]	*
*C:	*C:	*C:	*
*M3/4	*M3/4	*M3/4	*
*all\right	*all\right	*all\right	*
=1	=1	=1	=1
!	!	!	!LO:HP:a
4C 4CC\	4r	4g/	<
*	*	*2\right	*
4rEE	4e 4c 4G</	2cc\	.
4rFF	4e 4c 4G</	.	[[
=2	=2	=2	=2
.	.	(4qqcc/	.
!	!	!	!LO:HP:a
4D 4DD\	4r	2b\)	>
4rFF	4f 4B 4G</	.	]
4rFF	4f 4B 4G</	4r	.
=3	=3	=3	=3
*k[]	*k[]	*k[]	*
!	!	!	!LO:HP:a
4BB 4BBB\	4r	4g/	<
4rEE	4f 4d 4G</	2dd\	.
4rEE	4f 4d 4G</	.	[[
=4	=4	=4	=4
.	.	(4qqdd/	.
!	!	!	!LO:HP:a
4C 4CC\	4r	2cc\)	>
4rEE	4e 4c 4G</	.	]
4rEE	4e 4c 4G</	4r	.
=5	=5	=5	=5
!	!	!	!LO:HP:a
4C 4CC\	4r	4g/	<
4r	4e 4c 4G/	2ee\	.
4r	4e 4c 4G/	.	[[
!!LO:LB:g=original
=6	=6	=6	=6
.	.	(4qqee/	.
!	!LO:TX:t=P:problem:8r poprawiona na 4r	!	!LO:HP:a
4F 4FF\	4r	2dd\)	>
4rFF	4f 4d 4A</	.	]
4rFF	4d 4A</	(8a\L	.
.	.	8dd\J)	.
=7	=7	=7	=7
4G 4GG\	4r	8.cc/L	.
.	.	16g/Jk	.
4rFF	4e 4c 4G</	4ee\	.
.	.	(8qqee/	.
!	!	!LO:TX:t=P:problem:diminuendolike accent	!
4GG 4GGG\	4f 4B 4G</	4dd^<\)	.
=8	=8	=8	=8
.	.	(4qqdd/	.
!	!	!LO:TX:t=P:problem:diminuendolike accent	!
2C 2CC/	4r	2cc^<\)	.
.	4e 4c 4G</	.	.
4r	4r	4cc\	<[
=9	=9	=9	=9
.	.	(4qqdd/	.
!	!	!LO:TX:t=P:problem:diminuendolike accent	!
4A 4AA\	4r	2cc^<\)	.
4r	4f#X 4d 4c/	.	.
4r	4f# 4d 4c/	4f#X/	.
!!LO:LB:g=original
=10	=10	=10	=10
4G 4GG\	4r	8.g/L	.
.	.	16a/Jk	.
4r	4g 4d 4B/	4b/	.
!	!	!	!LO:HP:a
4r	4g 4d 4B/	4dd\	<
=11	=11	=11	=11
!	!	!	!LO:HP:a
4D 4DD/	4r	4.ff#\	[ >
4r	4f 4c 4A/	.	.
.	.	8ee\	.
.	.	.	]
.	.	(8qqdd/	.
4r	4f#X 4d 4c 4A/	8cc\L)	.
.	.	(8qqb/	.
.	.	8a\J)	.
=12	=12	=12	=12
*2\right	*	*	*
!	!	!LO:TX:t=P:problem:diminuendolike accent	!
2G 2GG\	8r	(4a#X^>/	.
.	8g 8e 8c#X 8A#X/	.	.
.	4g 4d 4B/	2b>/)	.
4G 4GG\	4g 4d 4B/	.	.
=13	=13	=13	=13
.	.	(4qqdd/	.
!	!	!LO:TX:t=P:problem:diminuendolike accent	!
4A 4AA\	4r	2cc^\)	.
4r	4f#X 4d 4c/	.	.
4r	4f# 4d 4c/	4f#X/	.
!!LO:LB:g=original
=14	=14	=14	=14
4G 4GG\	4r	(8.g/L	.
.	.	16a/Jk)	.
4r	4g 4d 4B/	4b/	.
!	!	!	!LO:HP:a
4r	4g 4d 4B/	4dd\	<[
=15	=15	=15	=15
!	!	!	!LO:HP:a
8D 8DD/	8r	4.ff#X\	>
8r	8d 8c 8A/	.	.
8D 8DD/	8r	.	.
8r	8d 8c 8A/	8ee\	]
.	.	(8qqdd/	.
8D 8DD/	8r	8cc\L)	.
.	.	(8qb/	.
8r	8f#X 8d 8c 8A/	8a\J)	.
=16	=16	=16	=16
8.GL 8.GG\	8.gL 8.d 8.B/	4g/	.
16A\Jk	16a/Jk	.	.
8G\L	8g/L	4r	.
8Fn\	8fn/	.	.
8E\	8e/	4r	.
8D\J	8d/J	.	.
!!LO:PB:g=original
=17	=17	=17	=17
4C 4CC\	8r	4g/	.
!	!	!	!LO:HP:a
.	[8G</	.	<
4rFF	4e 4c 4G</]	2cc\	.
4rFF	4e 4c 4G</	.	[[
=18	=18	=18	=18
.	.	(4qqcc/	.
!	!	!	!LO:HP:a
4D 4DD\	8r	2b\)	>
.	[8G</	.	.
4rFF	4f 4B 4G</]	.	]
4rFF	4f 4B 4G</	4r	.
=19	=19	=19	=19
4BB 4BBB\	8r	4g/	.
!	!	!	!LO:HP:a
.	[8G</	.	<
4rEE	4f 4d 4G</]	2dd\	.
4rEE	4f 4d 4G</	.	[[
=20	=20	=20	=20
.	.	(4qqdd/	.
!	!	!	!LO:HP:a
4C 4CC\	8r	2cc\)	>
.	[8G</	.	.
4rEE	4e 4c 4G</]	.	]
4rEE	4e 4c 4G</	4r	.
=21	=21	=21	=21
4C 4CC\	8r	4g/	.
!	!	!	!LO:HP:a
.	[8G</	.	<
4rFF	4e 4c 4G</]	2ee\	.
4rFF	4e 4c 4G</	.	[[
!!LO:LB:g=original
=22	=22	=22	=22
.	.	(4qqee/	.
!	!	!	!LO:HP:a
4F 4FF\	8r	2dd\)	>
.	[8A</	.	.
4rFF	4f 4d 4A</]	.	]
4rFF	4f 4d 4A</	(8a\L	.
.	.	8dd\J)	.
=23	=23	=23	=23
8GG\	8r	(8.cc\L	.
8rFF	8e 8c 8G</	.	.
.	.	16g\Jk	.
8GG\	8r	4ee\)	.
8rFF	8e 8c 8G</	.	.
.	.	(8qqee/	.
!	!	!LO:TX:t=P:problem:diminuendolike accent	!
8GG\	8r	4dd^\)	.
8rFF	8f 8d 8B 8G</	.	.
=24	=24	=24	=24
.	.	(4qqdd/	.
!	!	!LO:TX:t=P:problem:diminuendolike accent	!
8C 8CC\	8r	2cc^\)	.
8rFF	8G</	.	.
4C 4CC\	4e 4c 4G</	.	.
=!|:	=!|:	=!|:	=!|:
*>B	*>B	*>B	*>B
4r	4r	4cc\	.
=25	=25	=25	=25
!	!	!LO:TUP:a:problem:klamra łukowa	!
4C 4CC/	4r	12b-X\L	.
.	.	12cc\	.
!	!	!	!LO:HP:a
.	.	12ee\J	<
4rFF	4e 4c 4B-X 4G</	2gg\	.
4rFF	4e 4c 4B- 4G</	.	[
!!LO:LB:g=original
=26	=26	=26	=26
.	.	(4qqee/	.
4C 4CC/	4r	2ff\)	>
4r	4f 4c 4A/	.	]
4r	4f 4c 4A/	4r	.
=27	=27	=27	=27
!	!	!LO:TUP:a:problem:klamra łukowa	!
4C 4CC/	4r	12a-X\L	<
.	.	12cc\	.
.	.	12ee\J	.
4r	4f 4c 4A-X/	2ff\	[
4r	4f 4c 4A-/	.	.
=28	=28	=28	=28
.	.	(4qqdd#X/	.
4C 4CC/	4r	2ee\)	>
4rFF	4e 4c 4G</	.	]
4rFF	4e 4c 4G</	4ee\	<
=29	=29	=29	=29
.	.	(8qqee/	.
4F 4FF\	8r	4dd\)	[>
.	[8A</	.	]
4rFF	4f 4d 4A</]	4a\	.
4rFF	4f 4d 4A</	4dd\	<
=30	=30	=30	=30
.	.	(8qqb/	.
4GG 4GGG\	8r	4cc\)	[>
.	[8G</	.	.
4rEE	4e 4c 4G</]	4g/	]
4rEE	4e 4c 4G</	4cc\	.
!!LO:LB:g=original
=31	=31	=31	=31
.	.	(8qqcc/	.
!	!LO:TX:t=P:problem:4r poprawiona na 8r	!	!
4GG 4GGG\	8r	4b\)	.
.	[8G</	.	.
4rFF	4f 4B 4G</]	4aa\	.
4GG 4GGG\	4f 4B 4G</	4gg\	.
=32	=32	=32	=32
.	.	4qqgg/	.
4C 4CC\	4r	2cc\	.
4rFF	4e 4c 4G</	.	.
=:|!	=:|!	=:|!	=:|!
*-	*-	*-	*-
!!!system-decoration: <s1>{(s2,s3)}
!!!RDF**kern: > = above
!!!RDF**kern: < = below
!!!AIN: 1 empty 1 tenor
!!!ENC: Andrzej Kubiczek
!!!END: 2021-06-04
!!!ENC: Katarzyna Serwa
!!!END: 2021-05-18
